!!!OTL: Der Tannenbaum.
!!!OTL-incipit:IM WALDE STEHT EIN TANNENBAUM
!!!COM: C. A. Kern
!!!ARE: Europa, Mitteleuropa, Deutschland
!!!SCT: F0298
!!!TXL: @@DE
!!!YEM: Copyright 1995, estate of Helmut Schaffrath.
**kern	**text
*ICvox	*
*M6/8	*
*k[b-]	*
*F:	*
!LO:TX:a:t=Mäßig.	!
{8c	1._Jm
=1	=1
4f	Wal-
8a	-de
8cc/L	ſteht
8bnJ	.
8cc/	ein
=2	=2
4dd/	Tan-
8cc/	-nenbaum
4cc/}	.
{8a	mit
=3	=3
4g	Na-
8cc/	-deln
4ee/	ſpitʒ
8dd/	und
=4	=4
[4.cc/	ſein,
8cc/]	.
8r}	.
{8g	da-
=5	=5
4g	-mit
8a	näht
8b-L	ſich
8aJ	.
8b-/	der
=6	=6
4dd/	Di-
8cc/	-stel-
4cc/}	-fink
{8a	sein
=7	=7
4cc/	bun-
8b-/	-tes
4g	Rö-
8c	-cke-
=8	=8
[4.f	-lein!
8f]	.
8r}	.
{8g	da-
=9	=9
4g	-mit
8a	näht
8b-L	ſich
8aJ	.
8b-/	der
=10	=10
4dd/	Di-
8cc/	-stel-
4cc/}	-fink
{8a	sein
=11	=11
4cc/	bun-
8b-/	-tes
4g	Rö-
8c	-cke-
=12	=12
[4.f	-lein!
8f]	.
8r}	.
==	==
!!!AGN: Jugend - Lied, Weihnachten
!!!ONB: ESAC (Essen Associative Code) Database: FINK
!!!AMT: compound duple
!!!AIN: vox
!!!EED: Helmut Schaffrath
!!!EEV: 1.0
!!Text: C. Chr. Dieffenbach
!!!source: Musikalischer Hausschatz der Deutschen. Eine Sammlung von über 1000 Liedern und Gesängen mit Singstimmen und Klavierbegleitung. Leipzig, Litterarisches Verlags-Haus.
!!!page: 178
!!!ENC: Anna Maria Matuszewska
!!!EEV: 2025/03/13
*-	*-
